X:161
T:Trip to the Cottage
Z: id:dc-jig-138
M:6/8
L:1/8
K:G Major
zB|ded BGB|cBc AFE|DGG FGA|BGB ABc|!
ded BGB|cBc AFE|DGG FGA|BGF G:|!
Bd|gfe d^cd|ecA Bcd|ecA dBG|FAG FED|!
gfe d^cd|ecA Bcd|efg eag|fd^c d:|!

